!!!COM: Schubert, Franz
!!!CNT: Deutscher
!!!TXO: Deutsch
!!!OTL: "Das Wirthshaus"
!!!OPR: Winterreise
!!!LYR: Mu2ller, Wilhelm
!!!OPS: Opus 89
!!!ONM: No. 21
!!!ODT: 1827/
!!NB: Vocal melody only encoded.
**kern	**silbe
*clefG2	*
*k[b-]	*
*M4/4	*
*MM[langsam]	*
=5	=5
2r	.
4r	.
8r	.
{8g	{Auf
=6	=6
8.a	ei-
16a	-nen
8b-	To-
8a	-dten-
4a	-a-
8g	-cker
8g	hat
=7	=7
8.g	mich
16g	mein
8a	Weg
8f#	ge-
4g}	-bracht;}
8r	.
{8g	{all-
=8	=8
8.fn	-hier
16fn	will
8fn	ich
(16a	ein-
16g)	|
4fn	-keh-
8e	-ren,
8g	hab'
=9	=9
8a	ich
8b-	bei
8.cc	mir
16e	ge-
4f}	-dacht.}
4r	.
=11	=11
2r	.
4r	.
8r	.
{8g	{Ihr
=12	=12
8.a	gru2-
16a	-nen
8b-	To-
8a	-dten-
4a	-kra2n-
8g	-ze,
8g	ko2nnt
=13	=13
8.g	wohl
16g	die
8a	Zei-
8f#	-chen
4g}	sein,}
8r	.
{8g	{die
=14	=14
8.fn	mu2-
16fn	-de
8fn	Wan-
16a	-drer
16g	|
4f	la-
8e	-den
8g	ins
=15	=15
8a	ku2h-
8b-	-le
8.cc	Wirths-
16e	-haus
4f}	ein.}
4r	.
=17	=17
2r	.
4r	.
8r	.
{8cc	{Sind
=18	=18
8.cc	denn
16cc	in
8a	die-
8f	-sem
4f	Hau-
8b-	-se
8dd	die
=19	=19
8.dd	Kamm-
16cc	-ern
8a	all'
8cc	be-
4g}	-setzt?}
8r	.
{8cc	{bin
=20	=20
8.gg	matt
16cc	zum
8a	Nie-
8cc	-der-
4f	-sin-
8b-	-ken,
8dd-	bin
=21	=21
8.dd-	to2dt-
16cc	-lich
8a	schwer
8cc	ver-
4g}	-letzt.}
4r	.
=22	=22
2r	.
4r	.
8r	.
{8g	{O
=23	=23
8.a-	un-
16a-	-barm-
8b-	-herz'-
8a-	-ge
4a-	Schen-
8g	-ke,
8a-	doch
=24	=24
8.b-	weis-
16b-	-est
8cc	du
8g	mich
4a-}	ab?}
8r	.
{8cc	{Nun
=25	=25
8.cc	wei-
16cc	-ter
8cc	denn,
16ee-	nur
16dd	|
4c	wei-
8bn	-ter,
8cc	mein
=26	=26
8an	treu-
8b-	-er
8.cc	Wan-
16e	-der-
4f}	-stab,}
8r	.
{8bn	{nun
=27	=27
8.cc	wei-
16cc	-ter
8cc	denn,
16ff	nur
16dd	|
4cc	wei-
8bn	-ter,
8cc	mein
=28	=28
8a	treu-
8cc	-er
(16cc	Wan-
16b-)	|
(16a	-der-
16g)	|
4f}	-stab!}
4r	.
*-	*-
